!!!!SEGMENT: Ser1004f-Requiem-Sanctus
!!!id: Ser1004f
!!!AGN: Mass; Sanctus
!!!voices: 4
!!!OPR: Requiem
!!!COM: Claudin de Sermisy
!!!OTL: Sanctus
**kern	**kern	**kern	**kern
*part4	*part3	*part2	*part1
*staff4	*staff3	*staff2	*staff1
*I"Bassus	*I"Tenor	*I"Altus	*I"Superius
*I'B.	*I'T.	*I'A.	*I'S.
*clefF4	*clefGv2	*clefGv2	*clefGv2
*k[]	*k[]	*k[]	*k[]
*M2/1	*M2/1	*M2/1	*M2/1
*met(C|)	*met(C|)	*met(C|)	*met(C|)
=1	=1	=1	=1
!!section: Sanctus
!!!OMD: Sanctus
!	!	!	!LO:TX:a:t=Cantus firmus&colon; Missa pro defunctis
[0AA	0r	[0E	0A
=2	=2	=2	=2
0AA]	[0A	0E]	0c
=3	=3	=3	=3
0D	0A]	0F	0d
=4	=4	=4	=4
0AA	0A	0E	[0c
=5	=5	=5	=5
0C	[0G	1.E	0c]
.	.	2F	.
=6	=6	=6	=6
0E	0G]	2G	1B
.	.	2A	.
.	.	2B	1e
.	.	2c	.
=7	=7	=7	=7
0D	[0A	2d	2.f
.	.	2D	.
.	.	.	4e
.	.	1F	1d
=8	=8	=8	=8
0AA;	0A;]	0E;	0c;
=9	=9	=9	=9
0D	0F	0r	0A
=10	=10	=10	=10
1C	1G	0E	0c
[1AA	[1A	.	.
=11	=11	=11	=11
2AA]	1A]	1E	1.c
2AA	.	.	.
[1FF	1A	[1F	.
.	.	.	2c
=12	=12	=12	=12
1FF]	[0A	2F]	2d
.	.	2F	2.c
1r	.	1F	.
.	.	.	4B
.	.	.	4A
.	.	.	4G
=13	=13	=13	=13
0r	0A]	2r	2F
.	.	2.D	1f
.	.	4C	.
.	.	4D	4e
.	.	4E	4d
=14	=14	=14	=14
1r	0A	2F	2c
.	.	2D	2d
2r	.	1F	1c
[2AA	.	.	.
=15	=15	=15	=15
4AA]	0A	1.E	1r
4GG	.	.	.
4AA	.	.	.
4BB	.	.	.
2C	.	.	2r
2AA	.	2E	[2A
=16	=16	=16	=16
1D	0r	2.F	4A]
.	.	.	4G
.	.	.	4A
.	.	4G	4B
2r	.	2A	2c
[2D	.	2F	2A
=17	=17	=17	=17
4D]	1r	2B-i	1d
4C	.	.	.
4D	.	2.A	.
4E	.	.	.
2F	[1A	.	2c
.	.	4G	.
2D	.	4F	[2d
.	.	4E	.
=18	=18	=18	=18
2.F	1A]	1D	4d]
.	.	.	4e
.	.	.	4f
4E	.	.	4d
2C	1A	1r	2e
[2D	.	.	[2f
=19	=19	=19	=19
4D]	[0A	2r	4f]
4C	.	.	4e
2D	.	1F	1d
1AA	.	.	.
.	.	2E	2c#i
=20	=20	=20	=20
0D	1A]	1F	2.d
.	.	.	4e
.	[1A	2D	1f
.	.	2d	.
=21	=21	=21	=21
0E	2A]	2c	0e
.	4G#i	4B	.
.	4F#i	4A	.
.	1G#i	2B	.
.	.	[2c	.
=22	=22	=22	=22
0AA	[0Al	4c]	0c
.	.	4B	.
.	.	4A	.
.	.	4G	.
.	.	2F	.
.	.	2E	.
=23	=23	=23	=23
0D	0A_	0F	0d
=24	=24	=24	=24
0AAl	0A]	0El	0cl
=25||	=25||	=25||	=25||
*M2/1	*M2/1	*M2/1	*M2/1
*met(C|)	*met(C|)	*met(C|)	*met(C|)
!!section: Pleni sunt
!!!OMD: Pleni sunt
0r	0r	0r	0F
=26	=26	=26	=26
1r	0r	0r	1G
[1F	.	.	2.A
.	.	.	4B
=27	=27	=27	=27
1F]	0r	0r	2c
.	.	.	1d
1G	.	.	.
.	.	.	[2e
=28	=28	=28	=28
2.A	0r	0r	4e]
.	.	.	4d
.	.	.	4c
4G	.	.	4B
4F	.	.	2c
4E	.	.	.
[2D	.	.	2d
=29	=29	=29	=29
2D]	0r	0F	2.A
4C	.	.	.
4BB	.	.	4B
1AA	.	.	2c
.	.	.	2A
=30	=30	=30	=30
1GG	1r	1G	2B
.	.	.	1d
1r	[1F	1A	.
.	.	.	2c
=31	=31	=31	=31
1r	1F]	2D	2d
.	.	2F	2A
2r	1G	1E	2.B
[2G	.	.	.
.	.	.	4c
=32	=32	=32	=32
2G]	1A	0D	1d
4F	.	.	.
4E	.	.	.
2F	1A	.	2r
[2D	.	.	[2f
=33	=33	=33	=33
2D]	0A	1r	2f]
4C	.	.	4e
4BB	.	.	4d
2C	.	2r	2e
2D	.	[2F	[2d
=34	=34	=34	=34
0AA	0A	2F]	2d]
.	.	4E	4c#i
.	.	4D	4B
.	.	1E	1c#i
=35	=35	=35	=35
0r	0A	1D	1d
.	.	2r	1c
.	.	[2F	.
=36	=36	=36	=36
0r	1A	4F]	2.F
.	.	4G	.
.	.	4A	.
.	.	4B	4G
.	[1A	2c	4A
.	.	.	4B
.	.	2F	[2c
=37	=37	=37	=37
2.FF	1A]	2.c	2c]
.	.	.	1F
4GG	.	4B	.
4AA	1r	2A	.
4BB	.	.	.
2C	.	2G	2E
=38	=38	=38	=38
2FF	0A	2.c	1F
2.F	.	.	.
.	.	4B	.
.	.	2c	2r
4E	.	.	.
[2D	.	2d	[2f
=39	=39	=39	=39
2D]	1A	2D	2f]
2C	.	2E	2e
1D	[1A	1F	1d
=40	=40	=40	=40
0AA	1A]	2E	1c
.	.	1c	.
.	[1A	.	2r
.	.	2c	[2e
=41	=41	=41	=41
0r	2A]	2c	2e]
.	4G	4B	2e
.	4F	4A	.
.	1G	2B	2e
.	.	2B	4d
.	.	.	4c
=42	=42	=42	=42
0r	0F	1A	2d
.	.	.	2d
.	.	2r	1c
.	.	[2A	.
=43	=43	=43	=43
1.AA	0r	2A]	2r
.	.	2A	1c
.	.	2.A	.
2AA	.	.	2c
.	.	4G	.
=44	=44	=44	=44
1AA	0r	2E	2c
.	.	1F	4B
.	.	.	4A
1GG	.	.	2B
.	.	2E	2B
=45	=45	=45	=45
4FF	0A	1F	4A
4GG	.	.	4B
4AA	.	.	4c
4BB	.	.	4d
2C	.	2r	2e
2D	.	[2F	[2d
=46	=46	=46	=46
1AA	1A	2F]	2d]
.	.	2E	2c#i
1D	1A	1F	1d
=47	=47	=47	=47
0GG	0G	0B-i	[0dl
=48	=48	=48	=48
0Dl	0Fl	0Al	0d]
=49||	=49||	=49||	=49||
*M2/1	*M2/1	*M2/1	*M2/1
*met(C|)	*met(C|)	*met(C|)	*met(C|)
!!section: Osanna
!!!OMD: Osanna
0r	[0F	1A	1r
.	.	2D	1A
.	.	[2A	.
=50	=50	=50	=50
0r	0F]	4A]	2D
.	.	4G	.
.	.	4F	1A
.	.	4E	.
.	.	1D	.
.	.	.	4G
.	.	.	4F
=51	=51	=51	=51
1C	[0G	2r	4E
.	.	.	4F
.	.	2E	4G
.	.	.	4A
2GG	.	2D	2B
[2C	.	[2E	2G
=52	=52	=52	=52
2C]	0G]	2E]	1c
4BB	.	4D	.
4AA	.	4C	.
1GG	.	2.D	2B
.	.	.	[2d
.	.	4E	.
=53	=53	=53	=53
1D	0A	1F	4d]
.	.	.	4e
.	.	.	2f
2AA	.	1r	2e
[2D	.	.	[2f
=54	=54	=54	=54
2D]	0A	1D	2f]
4C	.	.	4e
4BB	.	.	4d
1AA	.	2E	1c
.	.	2F	.
=55	=55	=55	=55
0GG	0B-i	2G	1r
.	.	2D	.
.	.	1G	[1d
=56	=56	=56	=56
1D	1A	1F	1d]
1AA	[1A	2r	1e
.	.	[2c	.
=57	=57	=57	=57
0E	2A]	2c]	0e
.	4G	4B	.
.	4F	4A	.
.	1G	1B	.
=58	=58	=58	=58
1.F	[0Al	1A	1c
.	.	[1D	[1f
2E	.	.	.
=59	=59	=59	=59
2D	0A_	2D]	2f]
2C	.	2E	2e
1D	.	1F	1d
=60	=60	=60	=60
0AAl	0A]	0El	0cl
=61||	=61||	=61||	=61||
*M2/1	*M2/1	*M2/1	*M2/1
*met(C|)	*met(C|)	*met(C|)	*met(C|)
!!section: Benedictus
!!!OMD: Benedictus
0r	0r	0F	0r
=62	=62	=62	=62
0r	0r	1G	0r
.	.	1A	.
=63	=63	=63	=63
0r	1r	0A	0c
.	[1F	.	.
=64	=64	=64	=64
1r	1F]	2.A	1d
.	.	4B	.
[1C	1G	4c	1e
.	.	4d	.
.	.	[2c	.
=65	=65	=65	=65
1C]	1A	4c]	1e
.	.	4B	.
.	.	4A	.
.	.	4G	.
1D	[1A	1F	1d
=66	=66	=66	=66
1E	2A]	0r	2c
.	4G	.	4B
.	4F	.	4A
1E	1G	.	1B
=67	=67	=67	=67
0AA	0A	1r	0c
.	.	[1E	.
=68	=68	=68	=68
0AA	1r	1E]	0c
.	[1A	1E	.
=69	=69	=69	=69
1AA	1A]	0E	1c
[1AA	1A	.	[1c
=70	=70	=70	=70
1AA]	[0A	1E	1c]
1r	.	[1F	2.c
.	.	.	4B
=71	=71	=71	=71
1r	0A]	2F]	2c
.	.	4E	1d
.	.	4D	.
1AA	.	2E	.
.	.	2E	2c#i
=72	=72	=72	=72
1.BB	0r	2.D	0d
.	.	4E	.
.	.	2F	.
4AA	.	[2G	.
4GG	.	.	.
=73	=73	=73	=73
2AA	1A	2G]	0r
2AA	.	2F#i	.
2GG	[1B	1G	.
[2G	.	.	.
=74	=74	=74	=74
2G]	2B]	0D	1.d
4F	4A	.	.
4E	4G	.	.
2.F	2A	.	.
.	2A	.	2d
4E	.	.	.
=75	=75	=75	=75
2C	0G	1r	2e
2D	.	.	1d
1E	.	2r	.
.	.	[2G	2c#i
=76	=76	=76	=76
0D	0A	2G]	1d
.	.	4F	.
.	.	4E	.
.	.	2.F	2r
.	.	.	2d
.	.	4E	.
=77	=77	=77	=77
0r	1A	2C	2e
.	.	2D	2d
.	[1G	1E	2.B
.	.	.	4A
=78	=78	=78	=78
1GG	1G]	1D	4B
.	.	.	4c
.	.	.	2.d
1D	1F	[1F	.
.	.	.	4c
.	.	.	4A
.	.	.	4B
=79	=79	=79	=79
0C	0G	2F]	0c
.	.	4E	.
.	.	4D	.
.	.	1E	.
=80	=80	=80	=80
1FF	[0F	0F	1A
1BB-X	.	.	1d
=81	=81	=81	=81
2AA	0F]	0r	2c
1BB-i	.	.	1d
4AA	.	.	4c
4GG	.	.	4B
=82	=82	=82	=82
1FF	[0F	1A	1c
1r	.	2D	1A
.	.	[2A	.
=83	=83	=83	=83
0r	0F]	4A]	2D
.	.	4G	.
.	.	4F	1A
.	.	4E	.
.	.	1D	.
.	.	.	4G
.	.	.	4F
=84	=84	=84	=84
1C	[0G	2r	4E
.	.	.	4F
.	.	2E	4G
.	.	.	4A
2GG	.	2D	2B
[2C	.	[2E	2G
=85	=85	=85	=85
2C]	0G]	2E]	1c
4BB	.	4D	.
4AA	.	4C	.
1GG	.	2.D	2B
.	.	.	[2d
.	.	4E	.
=86	=86	=86	=86
1D	0A	1F	4d]
.	.	.	4e
.	.	.	2f
2AA	.	1r	2e
[2D	.	.	[2f
=87	=87	=87	=87
2D]	0A	1D	2f]
4C	.	.	4e
4BB	.	.	4d
1AA	.	2E	1c
.	.	2F	.
=88	=88	=88	=88
0GG	0B-X	2G	1r
.	.	2D	.
.	.	1G	[1d
=89	=89	=89	=89
1D	1A	1F	1d]
1AA	[1A	2r	1e
.	.	[2c	.
=90	=90	=90	=90
0E	2A]	2c]	0e
.	4G	4B	.
.	4F	4A	.
.	1G	1B	.
=91	=91	=91	=91
1.F	[0Al	1A	1c
.	.	[1D	[1f
2E	.	.	.
=92	=92	=92	=92
2D	0A_	2D]	2f]
2C	.	2E	2e
1D	.	1F	1d
=93	=93	=93	=93
0AAl	0A]	0El	0cl
==	==	==	==
*-	*-	*-	*-
!!!system-decoration: s1,s2,s3,s4
!!!RDF**kern: i = editorial accidental
!!!RDF**kern: l = terminal long
!!!ENC: Max Blistain
!!!END: 2025/11/19
!!!EED: Benjamin Ory
!!!EEV: 2026/02/20
!!!YEC: Copyright 2026 Benjamin Ory, All Rights Reserved
!!!ONB: Translated from MusicXML on 2026/02/20